src/3-context/stop--bus.svg

<svg width="1300" height="1000" fill="none" xmlns="http://www.w3.org/2000/svg"><g clip-path="url(#a)" fill="#000"><path d="M0 193v7l309.911-67.163A16.608 16.608 0 0 0 323 116.607c0-9.172-7.435-16.607-16.607-16.607H0v7h307.125a8.876 8.876 0 0 1 1.919 17.541L0 193Z"/><path fill-rule="evenodd" clip-rule="evenodd" d="M814 107h486v-7H812c-44.183 0-80 35.817-80 80v20h-19c-11.046 0-20 8.954-20 20v8h-21c-11.046 0-20 8.954-20 20v160c0 11.046 8.954 20 20 20h47c4.963 0 9.504-1.808 13-4.801V887c0 11.046 8.954 20 20 20h24v31c0 34.242 27.758 62 62 62 34.242 0 62-27.758 62-62v-31h338v31c0 34.242 27.76 62 62 62v-7c-30.38 0-55-24.624-55-55v-31h55v-7H754c-8.284 0-15-6.716-15-15v-13h561v-7H739V600h561v-7H739V207h561v-7H739v-18c0-41.421 33.579-75 75-75Zm-99 100h17v25.801A19.922 19.922 0 0 0 719 228h-19v-6c0-8.284 6.716-15 15-15Zm2 28c8.284 0 15 6.716 15 15v156c0 8.284-6.716 15-15 15h-43c-8.284 0-15-6.716-15-15V250c0-8.284 6.716-15 15-15h43Zm66 703v-31h110v31c0 30.376-24.624 55-55 55s-55-24.624-55-55Z"/><path fill-rule="evenodd" clip-rule="evenodd" d="M782 760c0-22.091 17.909-40 40-40h80c22.091 0 40 17.909 40 40s-17.909 40-40 40h-80c-22.091 0-40-17.909-40-40Zm7 0c0-18.225 14.775-33 33-33h80c18.225 0 33 14.775 33 33s-14.775 33-33 33h-80c-18.225 0-33-14.775-33-33Zm431 0c0-22.091 17.91-40 40-40h80c22.09 0 40 17.909 40 40s-17.91 40-40 40h-80c-22.09 0-40-17.909-40-40Zm7 0c0-18.225 14.77-33 33-33h80c18.23 0 33 14.775 33 33s-14.77 33-33 33h-80c-18.23 0-33-14.775-33-33Z"/></g><defs><clipPath id="a"><path fill="#fff" d="M0 0h1300v1000H0z"/></clipPath></defs></svg>

<svg width="1300" height="1000" viewBox="0 0 1300 1000" fill="none" xmlns="http://www.w3.org/2000/svg">
<g clip-path="url(#clip0_179_1580)">
<path d="M0 193V200L309.911 132.837C317.549 131.181 323 124.423 323 116.607C323 107.435 315.565 100 306.393 100H0V107H307.125C312.026 107 316 110.974 316 115.875C316 120.038 313.108 123.641 309.044 124.541L0 193Z" fill="black"/>
<path fill-rule="evenodd" clip-rule="evenodd" d="M814 107H1300V100H812C767.817 100 732 135.817 732 180V200H713C701.954 200 693 208.954 693 220V228H672C660.954 228 652 236.954 652 248V408C652 419.046 660.954 428 672 428H719C723.963 428 728.504 426.192 732 423.199V887C732 898.046 740.954 907 752 907H776V938C776 972.242 803.758 1000 838 1000C872.242 1000 900 972.242 900 938V907H1238V938C1238 972.242 1265.76 1000 1300 1000V993C1269.62 993 1245 968.376 1245 938V907H1300V900H754C745.716 900 739 893.284 739 885V872H1300V865H739V600H1300V593H739V207H1300V200H739V182C739 140.579 772.579 107 814 107ZM715 207H732V232.801C728.504 229.808 723.963 228 719 228H700V222C700 213.716 706.716 207 715 207ZM717 235C725.284 235 732 241.716 732 250V406C732 414.284 725.284 421 717 421H674C665.716 421 659 414.284 659 406V250C659 241.716 665.716 235 674 235H717ZM783 938V907H893V938C893 968.376 868.376 993 838 993C807.624 993 783 968.376 783 938Z" fill="black"/>
<path fill-rule="evenodd" clip-rule="evenodd" d="M782 760C782 737.909 799.909 720 822 720H902C924.091 720 942 737.909 942 760C942 782.091 924.091 800 902 800H822C799.909 800 782 782.091 782 760ZM789 760C789 741.775 803.775 727 822 727H902C920.225 727 935 741.775 935 760C935 778.225 920.225 793 902 793H822C803.775 793 789 778.225 789 760Z" fill="black"/>
<path fill-rule="evenodd" clip-rule="evenodd" d="M1220 760C1220 737.909 1237.91 720 1260 720H1340C1362.09 720 1380 737.909 1380 760C1380 782.091 1362.09 800 1340 800H1260C1237.91 800 1220 782.091 1220 760ZM1227 760C1227 741.775 1241.77 727 1260 727H1340C1358.23 727 1373 741.775 1373 760C1373 778.225 1358.23 793 1340 793H1260C1241.77 793 1227 778.225 1227 760Z" fill="black"/>
</g>
<defs>
<clipPath id="clip0_179_1580">
<rect width="1300" height="1000" fill="white"/>
</clipPath>
</defs>
</svg>
